X:18
T:Mary Douglas' Reel. Roose.0391
B:John Roose MS, Manchester, 1850
Z:Village Music Project. David Jacobs May 2019
M:C|
L:1/8
Q:1/4=100
K:Gm
f|dBfB {e}d2 cB|cFcB Acc>e|dBGc ecAc|gecf dBB:|
|:A|DFBF DFBA|GFED Cccd| DFBF DFBA|GFED B,BBF|
DFBF DFBA|GFED Cccd|DFBA DFBd|cAFA BB,B,:|

